src/icons/svg/instagram.svg

<?xml version="1.0" encoding="UTF-8"?>
<svg xmlns="http://www.w3.org/2000/svg" width="30" height="30" viewBox="0 0 30 30" fill="none">
    <path d="M15.0029 2.7017C19.0115 2.7017 19.4862 2.71928 21.0627 2.78961C22.5278 2.85407 23.319 3.10022 23.8465 3.30533C24.5439 3.57492 25.0479 3.90311 25.5694 4.42469C26.0969 4.95214 26.4192 5.45028 26.6888 6.14769C26.8939 6.67513 27.1401 7.47216 27.2045 8.93143C27.2749 10.5138 27.2924 10.9885 27.2924 14.9912C27.2924 18.9998 27.2749 19.4745 27.2045 21.051C27.1401 22.5161 26.8939 23.3073 26.6888 23.8347C26.4192 24.5321 26.091 25.0361 25.5694 25.5577C25.042 26.0852 24.5439 26.4075 23.8465 26.6771C23.319 26.8822 22.522 27.1283 21.0627 27.1928C19.4804 27.2631 19.0057 27.2807 15.0029 27.2807C10.9943 27.2807 10.5196 27.2631 8.94315 27.1928C7.47802 27.1283 6.68685 26.8822 6.15941 26.6771C5.46201 26.4075 4.958 26.0793 4.43641 25.5577C3.90897 25.0303 3.58664 24.5321 3.31705 23.8347C3.11194 23.3073 2.86579 22.5103 2.80133 21.051C2.731 19.4686 2.71342 18.9939 2.71342 14.9912C2.71342 10.9826 2.731 10.5079 2.80133 8.93143C2.86579 7.4663 3.11194 6.67513 3.31705 6.14769C3.58664 5.45028 3.91483 4.94628 4.43641 4.42469C4.96386 3.89725 5.46201 3.57492 6.15941 3.30533C6.68685 3.10022 7.48388 2.85407 8.94315 2.78961C10.5196 2.71928 10.9943 2.7017 15.0029 2.7017ZM15.0029 0C10.9299 0 10.42 0.0175816 8.82008 0.0879078C7.22602 0.158234 6.1301 0.416097 5.1807 0.78531C4.19027 1.1721 3.35222 1.68197 2.52002 2.52002C1.68197 3.35222 1.1721 4.19027 0.78531 5.17484C0.416097 6.1301 0.158234 7.22016 0.0879078 8.81422C0.0175816 10.42 0 10.9299 0 15.0029C0 19.076 0.0175816 19.5859 0.0879078 21.1858C0.158234 22.7798 0.416097 23.8758 0.78531 24.8252C1.1721 25.8156 1.68197 26.6536 2.52002 27.4858C3.35222 28.318 4.19027 28.8338 5.17484 29.2147C6.1301 29.5839 7.22016 29.8418 8.81422 29.9121C10.4141 29.9824 10.924 30 14.9971 30C19.0701 30 19.58 29.9824 21.1799 29.9121C22.774 29.8418 23.8699 29.5839 24.8193 29.2147C25.8039 28.8338 26.6419 28.318 27.4741 27.4858C28.3063 26.6536 28.822 25.8156 29.203 24.831C29.5722 23.8758 29.83 22.7857 29.9004 21.1916C29.9707 19.5917 29.9883 19.0819 29.9883 15.0088C29.9883 10.9357 29.9707 10.4259 29.9004 8.82594C29.83 7.23188 29.5722 6.13596 29.203 5.18656C28.8338 4.19027 28.3239 3.35222 27.4858 2.52002C26.6536 1.68783 25.8156 1.1721 24.831 0.79117C23.8758 0.421957 22.7857 0.164095 21.1916 0.0937683C19.5859 0.0175816 19.076 0 15.0029 0Z" fill="#19191C"/>
    <path d="M15.0029 7.29633C10.7482 7.29633 7.29636 10.7482 7.29636 15.0029C7.29636 19.2576 10.7482 22.7095 15.0029 22.7095C19.2577 22.7095 22.7095 19.2576 22.7095 15.0029C22.7095 10.7482 19.2577 7.29633 15.0029 7.29633ZM15.0029 20.0019C12.2426 20.0019 10.0039 17.7632 10.0039 15.0029C10.0039 12.2426 12.2426 10.0039 15.0029 10.0039C17.7632 10.0039 20.002 12.2426 20.002 15.0029C20.002 17.7632 17.7632 20.0019 15.0029 20.0019Z" fill="#19191C"/>
    <path d="M24.8134 6.99156C24.8134 7.98785 24.0047 8.79075 23.0143 8.79075C22.018 8.79075 21.2151 7.98199 21.2151 6.99156C21.2151 5.99528 22.0238 5.19238 23.0143 5.19238C24.0047 5.19238 24.8134 6.00114 24.8134 6.99156Z" fill="#19191C"/>
</svg>

<svg xmlns="http://www.w3.org/2000/svg" width="30" height="30" fill="none"><path fill="#19191C" d="M15.003 2.702c4.009 0 4.483.017 6.06.088 1.465.064 2.256.31 2.784.515.697.27 1.2.598 1.722 1.12.528.527.85 1.025 1.12 1.723.205.527.451 1.324.515 2.783.07 1.583.088 2.058.088 6.06 0 4.009-.017 4.483-.088 6.06-.064 1.465-.31 2.256-.515 2.784a4.64 4.64 0 0 1-1.12 1.723 4.6 4.6 0 0 1-1.723 1.12c-.527.204-1.324.45-2.783.515-1.583.07-2.057.088-6.06.088-4.009 0-4.483-.018-6.06-.088-1.465-.065-2.256-.31-2.784-.516a4.64 4.64 0 0 1-1.723-1.12 4.6 4.6 0 0 1-1.119-1.722c-.205-.528-.451-1.325-.516-2.784-.07-1.582-.088-2.057-.088-6.06 0-4.008.018-4.483.088-6.06.065-1.465.31-2.256.516-2.783a4.64 4.64 0 0 1 1.12-1.723 4.6 4.6 0 0 1 1.722-1.12c.528-.205 1.325-.45 2.784-.515 1.577-.07 2.051-.088 6.06-.088m0-2.702C10.93 0 10.42.018 8.82.088c-1.594.07-2.69.328-3.64.697A7.3 7.3 0 0 0 2.52 2.52 7.35 7.35 0 0 0 .785 5.175C.416 6.13.158 7.22.088 8.815.018 10.42 0 10.93 0 15.002s.018 4.583.088 6.183c.07 1.594.328 2.69.697 3.64.387.99.897 1.828 1.735 2.66a7.3 7.3 0 0 0 2.655 1.729c.955.369 2.045.627 3.64.697 1.6.07 2.109.088 6.182.088s4.583-.018 6.183-.088c1.594-.07 2.69-.328 3.64-.697a7.3 7.3 0 0 0 2.654-1.73 7.3 7.3 0 0 0 1.729-2.654c.37-.955.627-2.045.697-3.64.07-1.6.088-2.11.088-6.182s-.017-4.583-.088-6.183c-.07-1.594-.328-2.69-.697-3.64a7 7 0 0 0-1.717-2.666A7.3 7.3 0 0 0 24.83.791c-.955-.369-2.045-.627-3.64-.697C19.587.018 19.077 0 15.004 0"/><path fill="#19191C" d="M15.003 7.296a7.71 7.71 0 0 0-7.707 7.707 7.71 7.71 0 0 0 7.707 7.706 7.71 7.71 0 0 0 7.706-7.706 7.71 7.71 0 0 0-7.706-7.707m0 12.706a5 5 0 1 1 .001-10 5 5 0 0 1-.001 10m9.81-13.01a1.8 1.8 0 1 1-3.599-.001 1.8 1.8 0 0 1 3.6 0"/></svg>
